X:337
T:Quantum Flux
M:C|
L:1/8
C:© Paul Gitlitz, 2011
K:E dor
F|:"Bm"BFcF "A"dFcF|"Bm"BF2F- F3F|"Bm"BFcF "D"ddcd|"A"ec2c- c3e|!
"G"gbfa "Em"egdf|"A"ec2a- "D"a3b|"G"gedB "D"AF3|1"Em"E4- E3F:|2"Em"E8|!
|:"G"g/a/f gd "Bm"edBd|"Em"eg2g- "G"g3d|B/c/A BG "Bm"AF3|"Em"E8|!
"G"gbfa "Em"egdf|"A"ec2a- "D"a3d|"G"gbag "D"fd3|"Em"e8:|]
